X:1
T:Begin the Song
T:Henry Purcell (1659-1695)
T:Abraham Cowley
T:Begin the Song
T:The Resurrection
C:Henry Purcell
C:(1659-1695)
Z:Abraham Cowley
%%score 1 2
L:1/8
M:4/4
K:C
V:1 bass nm="Bass"
V:2 bass nm="Continuo"
V:1
 z C, G,>G, G,4 | z G, CG, E,C, E,/F,/G, | C4 z4 | z4 z2 E,2 | z E,/E,/ E,>F, G,3 G, | %5
w: Be- gin the song,|and strike _ _ the liv- * ing|lyre!|Lo!|How the years to come, a|
 G,A,- A,/A,/A,/A,/ A,<G, F,>E, |[M:2/2] D,6 G,,2 | C,3 D, C,2 D,2 | E,3 F, E,2 F,2 | G,6 G,2 | %10
w: nu- * * mer- ous and well _ fit- ted|quire, All|hand in hand do|de- cent- ly ad-|vance, do|
 G, A,2 B, A,2 A,2 | A, B,2 C B,2 A,G, | C3 B, A,B,A,G, | ^F,2 D,2 _B,>C A,>B, | %14
w: de- * cent- ly, do|de- * cent- ly ad- *|vance And to _ my _|song with smooth _ _ _|
 G,>A, =F,>G, _E,2 D,2 | C,_B,,A,,G,, D,2 D,2 | G,,8 | z8 | D,3 D, G,4 | E,6 E,2 | A,8- | %21
w: _ _ _ _ _ and|e- * qual _ meas- ures|dance.||Whilst the dance|lasts how|long|
 A,B, C2 B,CB,A, | ^G,3 B, C2 A,2 | D4- D3 C | B,>A, ^G,>B, A,>B, A,>=G, | %25
w: _ _ so e'er _ it _|be, My mu- sic's|voice, my mu-||
 F,>E, D,>F, E,>D, C,>B,, | A,,2 A,2 CB,A,^G, | A,3 A, A,2 z A, | A,2 G,2 G,2 F,2- | %29
w: * * * * * * * sic's|voice shall bear _ it _|com- pa- ny Till|all _ gen- *|
 F,G, E,F,/G,/ F,3 E, | E,4 E,C, G,2 | C>D C>D C>B, C<G, | C>D C>D E2 DC | %33
w: * * * tle _ notes be|drown'd In the last|trum- * * * * * * *|* * * pet's dread- ful _|
[M:4/4] C4- C>_B, _A,>G, | _A,>G, F,>_E, D,>C, =B,,>C, | B,,3 G, ^F,=F,=E,D, | _E,3 F,/D,/ D,3 C, | %37
w: sound, _ That to the|spheres them- selves shall si- * * lence|bring, Un- tune _ _ the|u- ni- * ver- sal|
 C,4 z C C>=E | C>C C<C, C3 C | CG, A,_B,/A,/ G,/F,/G,/E,/ F,/D,/E,/F,/ | %40
w: string: Then all the|wide ex- tend- ed sky And|all th'har- mo- * * * * * * * * * *|
 G,>A, G,2 A,/=B,/C- C>B, | B,/C/ D2 C B,E, C/^F,/G,/^D,/ | E,/B,,/E, B,,>B,, E,,4 | %43
w: * * nious world _ _ _ on|high _ _ And Vir- gil's sa- * * *|* * cred work shall die;|
 z E, ^G,E, A,>B, C2- | C=G, A,2- A,/G,/F,/E,/ D,>C, | G,3 B, D<B, A,>G, | %46
w: And he him- self shall see|_ in one _ fire _ _ _ _|shine Rich na- ture's an- cient|
 C3 G, A,_B,/A,/ G,F,/4E,/4F,/ | E,/4F,/4G,3/2- G,>G,, C,4 | z2 z G,, G,,A,,/B,,/ C,/D,/E,/^F,/ | %49
w: Troy, though built _ _ _ by _ _|hands _ _ _ di- vine.|Whom thun- * * * * * *|
 G,/D,/E,/^F,/ G,/A,/B,/C/ DC/B,/ A,/G,/F,/E,/ | D,/C,/B,,/A,,/ G,,/A,,/B,,/C,/ D,3 D, | %51
w: |* * * * * * * der's dis- mal|
 G,,4 z D, G,>A, | B,<G, B,>C D<B, E2- | ED/C/ B,/A,/B,/^G,/ A,/E,/D,/C,/ D,/B,,/C,/A,,/ | %54
w: noise And all the|pro- phets and a- pos- tles loud-|* * * * * * * * * * * * * er _|
 E,4 z E, E,>^F, | ^G,G, A,>B, C<B, A,>=G, | ^F,2 DA, F,>G, F,/4G,/4A,A,,/ | %57
w: spake And all the|crea- tures' plain con- spir- * * ing|voice Could not, whilst they liv'd, _ _ a-|
 D,2 z A, D/D/D D/^C/D/E/ | D=C/_B,/ A,/G,/F,/E,/ D,/E,/F,/G,/ A,/B,/C/A,/ | %59
w: wake, This migh- ti- er sound _ _ _|_ _ _ _ _ _ _ _ _ _ _ _ _ _ _|
 D>D DA, A, _B,2 A,/G,/ | A,/_B,/ C2 C C<A, F,2 | z F, F,<C, F,F,/G,/ _A,2- | A,2 G,4 F,F,/F,/ | %63
w: * shall make When dead _ to a-|rise _ _ And o- pen tombs|and o- pen eyes to the long|_ slug- * gards of|
 F,G, _E,>D, D,2 z D, | G,/G,/G, G,>A, G,/A,/B,- B,/C/B,/C/ | D2 z G, C/C/C C2- | %66
w: five _ thou- sand years, This|migh- ti- er sound _ _ _ _ _ _ _ _|_ this migh- ti- er sound|
 C/D/C/D/ ED/C/ B,/A,/G,/F,/ E,/F,/G,/E,/ | A,>B, C/G,/F,/E,/ D,/C,D,/ E,/C,/B,,/A,,/ | %68
w: _ _ _ _ _ _ _ _ _ _ _ _ _ _ _|* * * * * * * * shall make _ _ its|
 G,,3 G,, C,4 |:[M:3/4] A,3 C A,2 | B,<E, D,<C, D,<B,, | C,>D, E,3 A, | ^G,4 B,2 | %73
w: hear- er's ears.|Then shall the|scat- * * * ter'd _|at- oms crowd- ing|come, back|
 B,A, =G,2 ^F,E, |1 E,6 :|2 E,4 G,E, || C,3 G, CG, | A,4 A,F, | D,3 D, ^F,A, | D4 DB, | G,3 C CB, | %81
w: to their an- cient _|home,|home, some from|birds, from fish- es|some, Some from|earth, and some from|seas, Some from|beasts, and some from|
 C4 C>B, | A,2 ^G,>^F, E,>D, | C,>B,, A,,B,, C,A,, | E,4 E,>^F, | G,>A, B,2 B,,2 | E,4 E>D | %87
w: trees, some de-|scend _ _ _ _|_ from clouds _ on _|high, Some from|me- tals up- ward|fly, Some de-|
 C>B, A,>G, F,>E, | D,>E, F,2 D,2 | D3 C B,>A, | ^G,2 E,>D, C,>D, | E,>^F, ^G,>E, F,G, | %92
w: scend _ _ _ _ _|_ from clouds on|high, Some _ from|me- tals up- * *||
 A,>B, C2 B,A, | A,6 ||[M:4/4] z2 z E, E,>E, E,>F, | A,2 G,/C,D,/ D,_E,- E,>D, | D,2 G,2 z B, G,2 | %97
w: * * * ward _|fly|And, where th'at- tend- ing|soul nak- ed and shiv- * * 'ring|stands, Meet, sa- lute,|
 z G, G,^F, G,4 | z G,/B,,/ B,,/C,/D, B,,G,, G,,>G,, | C,2 E,2 G,2 C2 | ECCG, E,G, A,/B,/C/C/ | %101
w: and join their hands,|As dis- pers'd _ _ sol- diers at the|trum- * * *|* * * * * * * * * pet's|
 C>B, A,/G,/F,/E,/ D,E,/F,/ G,<G,, | C,4 z F, _A,>A, | _A,3 _B, B,E,- E,/F,/G,/F,/ | %104
w: call Haste _ _ _ _ _ to their co- lours|all, Un- hap- py|most, like tor- * * * tur'd _|
 F,3 F, F,2 F,C, | _D,2 D,C, F,2 G,/_A,/_B,- | B,>_A, G,A,/F,/ E,4 | z G, C>C C>C C/=A,_B,/ | %108
w: men, Their joints new _|set, to be new wrack'd _ _|_ _ _ a- * gain:|To moun- tains the for shel- ter _|
 ^F,>A, D>D =B,>C D/C/B,/A,/ | B,/A,/G,/^F,/ G,/=F,/E,/D,/ C,G,CG, | %110
w: pray, The moun- tains shake and run _ _ _|_ _ _ _ _ _ _ a- bout no less con-|
 A,/G,/A,/G,/ F,>E, D,>G,, G,>G, | E,>G, C/B,/A,/G,/ A,/G,/F,/E,/ F,/E,/D,/C,/ | %112
w: fus'd _ _ _ _ than they, the moun- tains|shake and run _ _ _ _ _ _ _ _ _ _ a-|
 B,,D,G,G,, A,,E,F,A,, | B,,G,C,A, D,B,CG, | A,/G,/F,/E,/ D,>C, C,4 | z4 E,4 | z2 A,4 B,>C | %117
w: bout no less con- fus'd, no less con-|fus'd, no less con- fus'd, no less con-|fus'd _ _ _ _ than they.|stop,|stop, _ my|
 A,2 z E E/A,A,/ ^G,>A, | B,2 z2 C/C/C/C/ C>B, | C4 z2 C2 | z C/C/ C<G, E,/E,/E, E,/F,G,/ | %121
w: muse, al- lay _ thy vi- g'rous|heat, Kin- dled at a hint so|great; Hold|thy Pin- da- ric Pe- ga- sus close- * ly|
 C,>E, E,>F, G,/A,/_B,/A,/ G,>F, | G, A,2 A,/A,/ D<A, F,>E, | D,>E, F,>G, A,>B, C<A, | %124
w: in, Which does to rage _ _ _ _ be-|gin _ And this steep _ hill would|gal- * * * * * lop _|
 D>C _B,/A,/G,/F,/ E,/F,/G,/A,/ F,/E,/D, | D,2 A,2- A,/A,/_B, ^F,D, | z G, G,^F, G,4 | %127
w: up with vi- * * * * * * * * o- lent|course; 'Tis _ an un- ru- ly|and hard mouth'd horse,|
 z/ G,/^F,/E,/ D,/C,/ B,,2 B,,/B,,/ B,,/C,/D, | G,,3 G, G,/D,/D,/D,/ E,>=F, |[M:3/4] E,6 | %130
w: Fierce _ _ _ _ _ and un- bro- * ken|yet, Im- pa- tient of the spur or|bit,|
 E2 C3 B, | C2 C,2 C<B, | D2- D>C B,/A,/G,/F,/ | E,/^F,/G, G,3 F, | G,4 z B, | ^D,3 E, ^F,B,, | %136
w: Now pran- ces|state- ly and a-|non _ flies _ _ _ _|_ _ _ o'er the|place, Dis-|dains the ser- vile|
 G,3 A, B,<A, | C/B,/A, G,3 ^F,/E,/ | E,6 | B,B,- B,2 z B, | E3 E B,2 | C2 A,3 ^G, | A,3 B, C<=G, | %143
w: law of a- ny|set- * * * tled _|pace,|Con- scious _ and|proud of his|own nat- 'ral|force, 'Twill no un-|
 A,<G, F,3 E, | D,3 D, G,2 | E, C,2 G, C<G, | A,3 B, C/B,/A,/G,/ | F,/E,/D,/C,/ G,,3 G,, | C,6 |] %149
w: skil- ful touch en-|dure, But flings|wri- ter and read- er|too that sits _ _ _|_ _ _ _ _ not|sure.|
V:2
 C,8- | C,8- | C,C,E,G, CG,E,C, | F,D,G,G,, C,4- | C,8 | F,,8 |[M:2/2] G,,8 | z4 z2 G,,2 | %8
 C,3 D, C,2 D,2 | E,3 F, E,2 C,2 | F,6 D,2 | G,6 F,2 | E,2 D,2 C,2 A,,2 | D,2 C,2 _B,,2 G,,2 | %14
 _E,2 D,2 C,2 _B,,2 | A,,2 G,,2 D,,4 | G,,2 D,2 G,>A, F,>G, | _E,2 D,C, D,2 D,,2 | %18
 G,,2 A,,2 B,,2 G,,2 | C,3 D, C,>D, B,,>C, | A,,>B,, G,,>A,, F,,>G,, E,,>F,, | %21
 D,,2 F,,2 E,,2 D,,2 | E,,2 E,2 A,2 G,2 | F,>G, E,>F, D,2 B,,2 | E,3 D, C,2 A,,2 | %25
 D,>C, B,,>A,, ^G,,>B,, A,,>=G,, | F,,>E,, D,,>F,, E,,4 | A,,8 | _B,,8 | =B,,8 | C,8 | %31
 C,2 G,,2 C,2 E,2 | C,2 G,,2 E,,2 G,,2 |[M:4/4] C,3 _B,,"^6" _A,,2 E,,2 | F,,4 ^F,,4 | G,,8- | %36
 G,,2 F,,2 G,,4 |"^!""^#" C,8- | C,8 | C,8- | C,2 B,,2 A,,4 | G,,4 ^G,,2 A,,2 | B,,4 E,,4 | %43
 E,3 D, C,2 A,,2 | E,,2 F,,2 G,,2 A,,2 | G,,4 G,3 F, | E,2 C,2 F,2 F,,2 | G,,4 C,4 | G,,8- | %49
 G,,8- | G,,4 D,,4 | G,,8 | G,,8 |"^7""^6" F,,8 | E,,8- | E,,4 A,,4 |"^#" D,6"^4""^#" A,,2 | %57
"^#" D,,4"^!" D,,4- | D,,8- | D,,4"^7""^6" G,,4 | F,,8- | F,,8 | G,,4 _A,,4 | G,,2 F,,2 G,,4- | %64
 G,,8- | G,,4 C,4- | C,8 | F,,8 | G,,4 C,4 |:[M:3/4] A,,6 | A,,2 ^G,,4 | A,,2 =G,,2 F,,2 | %72
 E,,4 G,,2 | A,,2 B,,4 |1 E,>F, E,>D, C,>B,, :|2 E,4 E,2 || C,6 | F,6 |"^#" D,6 | B,,4 G,,2 | %80
 C,2 E,,2 G,,2 | C,6 | A,,4 ^G,,2 | A,,2 F,,4 | E,,4 E,2 | G,2 B,2 B,,2 | E,4 E,,2 | A,,6 | %88
 D,2- D,>E, D,>C, | B,,>A,, ^G,,2 A,,2 | E,,6 | E,,4 D,,2 | C,,>D,, E,,4 | A,,6 ||[M:4/4] C,8- | %95
"^!" C,8 | G,,8 | D,,4 G,,4- | G,,8 | C,8- | C,8- | C,2 F,,2 G,,4 | C,4"^!" F,,4- | F,,4 F,,4- | %104
 F,,4 =A,,4 | _B,,2 C,2 _D,4- | D,4 C,4- |"^!" C,8 | D,4 G,,4- | G,,4 C,2 E,,2 | F,,4 G,,4 | %111
 C,4 F,,4 |"^8""^742" G,,8 |"^753""^64""^53""^64" G,,8- |"^4""^3" G,,4 C,4 | A,,8- | A,,8- | A,,8 | %118
"^5""^6" E,4 D,4 | C,8- | C,8- | C,4 C,4 | F,4 D,4- | D,4"^6" C,4 | _B,,2 G,,2"^4""^#" A,,4 | D,8 | %126
"^N""^5" D,4 G,,4- | G,,8- | G,,8 |[M:3/4] C,6 | C,2 G,,4 | C,6 | G,,6 | C,2 D,2 D,,2 | G,,6 | %135
 B,,6 | E,,2 ^F,,2 G,,2 | A,,2 B,,4 | E,,6- | E,,6 | ^G,,6 | A,,2 E,,4 | A,,4 E,2 | F,2 F,,4 | %144
 G,,6 | C,6 | F,,6- | F,,2 G,,4 | C,6 |] %149

